/* XPM */
static char * east_xpm[] = {
"32 32 3 1",
"B c #8B5A2B",
"M c #D6C9B8",
"S c #5E3A1A",
"MMMMMMMMMMMMMMMMMMMMMMMMMMMMMMMM",
"MSBBBBBBMSBBBBBBMSBBBBBBMSBBBBBB",
"MSBBBBBBMSBBBBBBMSBBBBBBMSBBBBBB",
"MSBBBBBBMSBBBBBBMSBBBBBBMSBBBBBB",
"MMMMMMMMMMMMMMMMMMMMMMMMMMMMMMMM",
"BBBBMSBBBBBBMSBBBBBBMSBBBBBBMSBB",
"BBBBMSBBBBBBMSBBBBBBMSBBBBBBMSBB",
"BBBBMSBBBBBBMSBBBBBBMSBBBBBBMSBB",
"MMMMMMMMMMMMMMMMMMMMMMMMMMMMMMMM",
"MSBBBBBBMSBBBBBBMSBBBBBBMSBBBBBB",
"MSBBBBBBMSBBBBBBMSBBBBBBMSBBBBBB",
"MSBBBBBBMSBBBBBBMSBBBBBBMSBBBBBB",
"MMMMMMMMMMMMMMMMMMMMMMMMMMMMMMMM",
"BBBBMSBBBBBBMSBBBBBBMSBBBBBBMSBB",
"BBBBMSBBBBBBMSBBBBBBMSBBBBBBMSBB",
"BBBBMSBBBBBBMSBBBBBBMSBBBBBBMSBB",
"MMMMMMMMMMMMMMMMMMMMMMMMMMMMMMMM",
"MSBBBBBBMSBBBBBBMSBBBBBBMSBBBBBB",
"MSBBBBBBMSBBBBBBMSBBBBBBMSBBBBBB",
"MSBBBBBBMSBBBBBBMSBBBBBBMSBBBBBB",
"MMMMMMMMMMMMMMMMMMMMMMMMMMMMMMMM",
"BBBBMSBBBBBBMSBBBBBBMSBBBBBBMSBB",
"BBBBMSBBBBBBMSBBBBBBMSBBBBBBMSBB",
"BBBBMSBBBBBBMSBBBBBBMSBBBBBBMSBB",
"MMMMMMMMMMMMMMMMMMMMMMMMMMMMMMMM",
"MSBBBBBBMSBBBBBBMSBBBBBBMSBBBBBB",
"MSBBBBBBMSBBBBBBMSBBBBBBMSBBBBBB",
"MSBBBBBBMSBBBBBBMSBBBBBBMSBBBBBB",
"MMMMMMMMMMMMMMMMMMMMMMMMMMMMMMMM",
"BBBBMSBBBBBBMSBBBBBBMSBBBBBBMSBB",
"BBBBMSBBBBBBMSBBBBBBMSBBBBBBMSBB",
"BBBBMSBBBBBBMSBBBBBBMSBBBBBBMSBB"
};
