/* XPM */
static char * north_xpm[] = {
"32 32 3 1",
"B c #B22222",
"M c #D8D0C0",
"S c #8B1A1A",
"MMMMMMMMMMMMMMMMMMMMMMMMMMMMMMMM",
"MSBBBBBBMSBBBBBBMSBBBBBBMSBBBBBB",
"MSBBBBBBMSBBBBBBMSBBBBBBMSBBBBBB",
"MSBBBBBBMSBBBBBBMSBBBBBBMSBBBBBB",
"MMMMMMMMMMMMMMMMMMMMMMMMMMMMMMMM",
"BBBBMSBBBBBBMSBBBBBBMSBBBBBBMSBB",
"BBBBMSBBBBBBMSBBBBBBMSBBBBBBMSBB",
"BBBBMSBBBBBBMSBBBBBBMSBBBBBBMSBB",
"MMMMMMMMMMMMMMMMMMMMMMMMMMMMMMMM",
"MSBBBBBBMSBBBBBBMSBBBBBBMSBBBBBB",
"MSBBBBBBMSBBBBBBMSBBBBBBMSBBBBBB",
"MSBBBBBBMSBBBBBBMSBBBBBBMSBBBBBB",
"MMMMMMMMMMMMMMMMMMMMMMMMMMMMMMMM",
"BBBBMSBBBBBBMSBBBBBBMSBBBBBBMSBB",
"BBBBMSBBBBBBMSBBBBBBMSBBBBBBMSBB",
"BBBBMSBBBBBBMSBBBBBBMSBBBBBBMSBB",
"MMMMMMMMMMMMMMMMMMMMMMMMMMMMMMMM",
"MSBBBBBBMSBBBBBBMSBBBBBBMSBBBBBB",
"MSBBBBBBMSBBBBBBMSBBBBBBMSBBBBBB",
"MSBBBBBBMSBBBBBBMSBBBBBBMSBBBBBB",
"MMMMMMMMMMMMMMMMMMMMMMMMMMMMMMMM",
"BBBBMSBBBBBBMSBBBBBBMSBBBBBBMSBB",
"BBBBMSBBBBBBMSBBBBBBMSBBBBBBMSBB",
"BBBBMSBBBBBBMSBBBBBBMSBBBBBBMSBB",
"MMMMMMMMMMMMMMMMMMMMMMMMMMMMMMMM",
"MSBBBBBBMSBBBBBBMSBBBBBBMSBBBBBB",
"MSBBBBBBMSBBBBBBMSBBBBBBMSBBBBBB",
"MSBBBBBBMSBBBBBBMSBBBBBBMSBBBBBB",
"MMMMMMMMMMMMMMMMMMMMMMMMMMMMMMMM",
"BBBBMSBBBBBBMSBBBBBBMSBBBBBBMSBB",
"BBBBMSBBBBBBMSBBBBBBMSBBBBBBMSBB",
"BBBBMSBBBBBBMSBBBBBBMSBBBBBBMSBB"
};
