/* XPM */
static char * south_xpm[] = {
"32 32 3 1",
"B c #C1440E",
"M c #E8DCC8",
"S c #8F3208",
"MMMMMMMMMMMMMMMMMMMMMMMMMMMMMMMM",
"MSBBBBBBMSBBBBBBMSBBBBBBMSBBBBBB",
"MSBBBBBBMSBBBBBBMSBBBBBBMSBBBBBB",
"MSBBBBBBMSBBBBBBMSBBBBBBMSBBBBBB",
"MMMMMMMMMMMMMMMMMMMMMMMMMMMMMMMM",
"BBBBMSBBBBBBMSBBBBBBMSBBBBBBMSBB",
"BBBBMSBBBBBBMSBBBBBBMSBBBBBBMSBB",
"BBBBMSBBBBBBMSBBBBBBMSBBBBBBMSBB",
"MMMMMMMMMMMMMMMMMMMMMMMMMMMMMMMM",
"MSBBBBBBMSBBBBBBMSBBBBBBMSBBBBBB",
"MSBBBBBBMSBBBBBBMSBBBBBBMSBBBBBB",
"MSBBBBBBMSBBBBBBMSBBBBBBMSBBBBBB",
"MMMMMMMMMMMMMMMMMMMMMMMMMMMMMMMM",
"BBBBMSBBBBBBMSBBBBBBMSBBBBBBMSBB",
"BBBBMSBBBBBBMSBBBBBBMSBBBBBBMSBB",
"BBBBMSBBBBBBMSBBBBBBMSBBBBBBMSBB",
"MMMMMMMMMMMMMMMMMMMMMMMMMMMMMMMM",
"MSBBBBBBMSBBBBBBMSBBBBBBMSBBBBBB",
"MSBBBBBBMSBBBBBBMSBBBBBBMSBBBBBB",
"MSBBBBBBMSBBBBBBMSBBBBBBMSBBBBBB",
"MMMMMMMMMMMMMMMMMMMMMMMMMMMMMMMM",
"BBBBMSBBBBBBMSBBBBBBMSBBBBBBMSBB",
"BBBBMSBBBBBBMSBBBBBBMSBBBBBBMSBB",
"BBBBMSBBBBBBMSBBBBBBMSBBBBBBMSBB",
"MMMMMMMMMMMMMMMMMMMMMMMMMMMMMMMM",
"MSBBBBBBMSBBBBBBMSBBBBBBMSBBBBBB",
"MSBBBBBBMSBBBBBBMSBBBBBBMSBBBBBB",
"MSBBBBBBMSBBBBBBMSBBBBBBMSBBBBBB",
"MMMMMMMMMMMMMMMMMMMMMMMMMMMMMMMM",
"BBBBMSBBBBBBMSBBBBBBMSBBBBBBMSBB",
"BBBBMSBBBBBBMSBBBBBBMSBBBBBBMSBB",
"BBBBMSBBBBBBMSBBBBBBMSBBBBBBMSBB"
};
