/* XPM */
static char * west_xpm[] = {
"32 32 3 1",
"B c #6E6259",
"M c #CFC9C0",
"S c #4A413A",
"MMMMMMMMMMMMMMMMMMMMMMMMMMMMMMMM",
"MSBBBBBBMSBBBBBBMSBBBBBBMSBBBBBB",
"MSBBBBBBMSBBBBBBMSBBBBBBMSBBBBBB",
"MSBBBBBBMSBBBBBBMSBBBBBBMSBBBBBB",
"MMMMMMMMMMMMMMMMMMMMMMMMMMMMMMMM",
"BBBBMSBBBBBBMSBBBBBBMSBBBBBBMSBB",
"BBBBMSBBBBBBMSBBBBBBMSBBBBBBMSBB",
"BBBBMSBBBBBBMSBBBBBBMSBBBBBBMSBB",
"MMMMMMMMMMMMMMMMMMMMMMMMMMMMMMMM",
"MSBBBBBBMSBBBBBBMSBBBBBBMSBBBBBB",
"MSBBBBBBMSBBBBBBMSBBBBBBMSBBBBBB",
"MSBBBBBBMSBBBBBBMSBBBBBBMSBBBBBB",
"MMMMMMMMMMMMMMMMMMMMMMMMMMMMMMMM",
"BBBBMSBBBBBBMSBBBBBBMSBBBBBBMSBB",
"BBBBMSBBBBBBMSBBBBBBMSBBBBBBMSBB",
"BBBBMSBBBBBBMSBBBBBBMSBBBBBBMSBB",
"MMMMMMMMMMMMMMMMMMMMMMMMMMMMMMMM",
"MSBBBBBBMSBBBBBBMSBBBBBBMSBBBBBB",
"MSBBBBBBMSBBBBBBMSBBBBBBMSBBBBBB",
"MSBBBBBBMSBBBBBBMSBBBBBBMSBBBBBB",
"MMMMMMMMMMMMMMMMMMMMMMMMMMMMMMMM",
"BBBBMSBBBBBBMSBBBBBBMSBBBBBBMSBB",
"BBBBMSBBBBBBMSBBBBBBMSBBBBBBMSBB",
"BBBBMSBBBBBBMSBBBBBBMSBBBBBBMSBB",
"MMMMMMMMMMMMMMMMMMMMMMMMMMMMMMMM",
"MSBBBBBBMSBBBBBBMSBBBBBBMSBBBBBB",
"MSBBBBBBMSBBBBBBMSBBBBBBMSBBBBBB",
"MSBBBBBBMSBBBBBBMSBBBBBBMSBBBBBB",
"MMMMMMMMMMMMMMMMMMMMMMMMMMMMMMMM",
"BBBBMSBBBBBBMSBBBBBBMSBBBBBBMSBB",
"BBBBMSBBBBBBMSBBBBBBMSBBBBBBMSBB",
"BBBBMSBBBBBBMSBBBBBBMSBBBBBBMSBB"
};
